icons/alacritty-dark.svg

<svg xmlns="http://www.w3.org/2000/svg" width="256" height="256" fill="none"><rect width="256" height="256" fill="#282828" rx="60"/><path fill="#069EFE" fill-rule="evenodd" d="m112.957 146.697-4.634 11.227c12.452 38.344 12.452 38.344 19.404 71.792 6.951-33.448 6.951-33.448 19.403-71.792l-4.634-11.227-14.769-35.785z" clip-rule="evenodd"/><path fill="url(#gradient)" fill-rule="evenodd" d="M111.383 27h32.688l72.383 179.643H186.1L127.727 69.437 69.354 206.643H39z" clip-rule="evenodd"/><path fill="#fff" fill-rule="evenodd" d="M118.045 134.514 115 141.891c8.182 25.196 8.182 25.196 12.75 47.175 4.568-21.979 4.568-21.979 12.75-47.175l-3.045-7.377L127.75 111z" clip-rule="evenodd"/><linearGradient id="gradient" x1="128.019" x2="127.749" y1="27" y2="221.239" gradientUnits="userSpaceOnUse"><stop stop-color="#EC2802"/><stop offset="1" stop-color="#FCB200"/></linearGradient></svg>

<svg width="256" height="256" viewBox="0 0 256 256" fill="none" xmlns="http://www.w3.org/2000/svg">
<rect width="256" height="256" rx="60" fill="#282828"/>
<path fill-rule="evenodd" clip-rule="evenodd" d="M112.957 146.697L108.323 157.924C120.775 196.268 120.775 196.268 127.727 229.716C134.678 196.268 134.678 196.268 147.13 157.924L142.496 146.697L127.727 110.912L112.957 146.697Z" fill="#069EFE"/>
<path fill-rule="evenodd" clip-rule="evenodd" d="M111.383 27H144.071L216.454 206.643H186.1L127.727 69.4371L69.354 206.643H39L111.383 27Z" fill="url(#gradient)"/>
<path fill-rule="evenodd" clip-rule="evenodd" d="M118.045 134.514L115 141.891C123.182 167.087 123.182 167.087 127.75 189.066C132.318 167.087 132.318 167.087 140.5 141.891L137.455 134.514L127.75 111L118.045 134.514Z" fill="white"/>
<linearGradient id="gradient" x1="128.019" y1="27" x2="127.749" y2="221.239" gradientUnits="userSpaceOnUse">
<stop stop-color="#EC2802"/>
<stop offset="1" stop-color="#FCB200"/>
</linearGradient>
</svg>
